X:1030
T:Maid Of Holywell, The
R:reel
Z:id:hn-reel-1030
M:C|
L:1/8
K:D
A2FA B2dB | A2FA BE~E2 | A2FA BdAd | (3Bcd AG FDDB |
ADFA BdcB | A2FA BEEF | ~G3A (3Bcd eg |1 fdec d2dB :|2 fdec d3A ||
|: d2fd edBd | egfe dBAB | d2fd egfe | dBAG FDD2 |
d2fd edBd | egfe dBAB | defg a2ag |1 f2eg fdd2 :|2 faeg fddB ||

